app/img/telegram.svg

<svg width="40" height="40" viewBox="0 0 40 40" fill="none" xmlns="http://www.w3.org/2000/svg">
<path fill-rule="evenodd" clip-rule="evenodd" d="M16.6736 24.0686L16.6732 24.0683L16.6737 24.0678L16.6737 24.0677L16.6737 24.0678L25.9473 15.6991C26.3543 15.3379 25.8584 15.1617 25.3181 15.4894L13.8726 22.7102L8.92876 21.1671C7.86111 20.8402 7.85344 20.1066 9.16846 19.5791L28.4335 12.1506C29.3133 11.7512 30.1626 12.362 29.8267 13.7087L26.5459 29.1692C26.3168 30.2678 25.6529 30.5306 24.7332 30.0231L19.7355 26.3307L17.3333 28.6666C17.3257 28.6739 17.3182 28.6813 17.3107 28.6886C17.042 28.9501 16.8198 29.1666 16.3333 29.1666L16.6736 24.0686Z" fill="#1E2E36"/>
</svg>

<svg width="40" height="40" fill="none" xmlns="http://www.w3.org/2000/svg"><path fill-rule="evenodd" clip-rule="evenodd" d="M16.674 24.069v-.001l9.273-8.369c.407-.361-.089-.537-.629-.21L13.873 22.71l-4.944-1.543c-1.068-.327-1.076-1.06.24-1.588l19.264-7.428c.88-.4 1.73.211 1.394 1.558l-3.281 15.46c-.23 1.099-.893 1.362-1.813.854l-4.998-3.692-2.402 2.336-.022.022c-.269.261-.491.478-.978.478l.34-5.098z" fill="#1E2E36"/></svg>
